X:330
T:Jacks Alive. RH.330
R:jig
S:Rev.R.Harrison’s MS,c1815,Cumbria
N:Not as other versions..
O:England
A:Temple Sowerby,Cumbria
Z:vmp.Simon Wilson. Review PJH, 2008.
M:6/8
L:1/8
Q:3/8=120
K:G
” As Writ”D|G2G GAB|A2A ABc|d2B c2A|B2G FED|!
G2G GAB|A2A ABc|dBd cBA|G2Gz2:|!
|:G|g2g gbg|f2f faf|e2e efg|a2g gfe|!
g2g gbg|f2f faf|efg agf|g3 g3|!
gbg gbg|faf faf|efe efg|a2g fed|!
gab Bcd|efg GAB|cBA GFE|G2 G3z|]

